X:228
T:Pollonesse ur Matthias Silvius Svenonis notbok
T:(SmM I:228)
O:Kalmar, Småland
R:Polska
B:Småländsk Musiktradition
N:Småländsk Musiktradition, I:228
S:Matthias Silvius Svenonis
N:1721
Z:Till abc Jonas Brunskog
M:3/4
L:1/8
K:F
|:ff/e/ f2c2|dd/c/ B2 A2|aa/g/ a2 e2|ff/e/ d2c2|df ef ge|f>f f4:|
|:((3fga) ((3gab) gc|((3def) ((3efg) fc|((3fga) ((3gab) gc|((3def) ((3efg) fc|dc BA GA|G>F F4:|

